X: 10972
M: C
L: 1/8
K: G
d !segno!|\
g3f agfe | ~d^cde dedB | GedB GedB | c2A2 A3d |\
g3f agfe | d^cde dedB | GedB dcAB | G2g2 g3 H|]
"^8va   _   _   _"B |\


